X: 32117
T: Peter  Flanagan's
R: reel
M: 4/4
K: Gmajor
|:EAAG A2 (3Bcd|eggd eg g2|gedB G2 (3Bcd|edBA GEDG|
EAAG A2 (3Bcd|eggd eg g2|gedB GABd|egdB BA A2:|
|:a2 ea a2 ea|a2 ba ge d2|g2 dg egdg|gabg aged|
ageg a4|agbg aged|GABd gedB|egdB BA A2:|

